X:1
T:Hymn Polski - łatwa synthesia
%%score 1 2
L:1/8
M:3/4
K:F
V:1 treble nm="Piano, Acoustic Piano"
V:2 bass nm="Piano, Acoustic Piano"
V:1
 A>B c2 c2 | c>A dc BA | G>G c3 B | B2 A2 z2 | A>B c2 c2 | c>A dc BA | G>G c3 E | G2 F2 z2 || %8
 G2 G3 B | BA A4 | B>B B2 Bd | d2 c4 | A>c f3 e | ed d4 | c>c B3 E | G2 F2 z2 | G2 G3 B | BA A4 | %18
 B>B B2 Bd | d2 c4 | A>c f3 e | ed d4 | c>c B3 E | G2 F2 z2 |] %24
V:2
 F,6 | F,6 | C,6 | F,6 | F,6 | F,6 | C,6 | F,4 z2 || C,6 | F,6 | B,,6 | F,6 | F,6 | B,,6 | C,6 | %15
 F,4 z2 | C,6 | F,6 | B,,6 | F,6 | F,6 | B,,6 | C,6 | F,4 z2 |] %24

